SVG/date.svg

<?xml version="1.0" encoding="UTF-8" standalone="no"?>
<!-- Uploaded to: SVG Repo, www.svgrepo.com, Generator: SVG Repo Mixer Tools -->

<svg
   fill="#000000"
   width="800px"
   height="800px"
   viewBox="0 0 32 32"
   style="fill-rule:evenodd;clip-rule:evenodd;stroke-linejoin:round;stroke-miterlimit:2;"
   version="1.1"
   xml:space="preserve"
   id="svg2"
   sodipodi:docname="date.svg"
   inkscape:version="1.4.4 (dcaf3e7d9e, 2026-05-05)"
   xmlns:inkscape="http://www.inkscape.org/namespaces/inkscape"
   xmlns:sodipodi="http://sodipodi.sourceforge.net/DTD/sodipodi-0.dtd"
   xmlns="http://www.w3.org/2000/svg"
   xmlns:svg="http://www.w3.org/2000/svg"><defs
   id="defs2" /><sodipodi:namedview
   id="namedview2"
   pagecolor="#ffffff"
   bordercolor="#000000"
   borderopacity="0.25"
   inkscape:showpageshadow="2"
   inkscape:pageopacity="0.0"
   inkscape:pagecheckerboard="0"
   inkscape:deskcolor="#d1d1d1"
   inkscape:zoom="0.8575"
   inkscape:cx="400"
   inkscape:cy="400"
   inkscape:window-width="1210"
   inkscape:window-height="933"
   inkscape:window-x="0"
   inkscape:window-y="0"
   inkscape:window-maximized="1"
   inkscape:current-layer="g2" />

<g
   transform="matrix(1,0,0,1,-192,-240)"
   id="g2">

<g
   transform="matrix(1.2381,0,0,1.04348,-50.1429,239.783)"
   id="g1">

</g>

<path
   d="m 215,244 h -6 v -1 c 0,-0.552 -0.448,-1 -1,-1 -0.552,0 -1,0.448 -1,1 v 1 h -6 v -1 c 0,-0.552 -0.448,-1 -1,-1 -0.552,0 -1,0.448 -1,1 v 1 h -2 c -0.796,0 -1.559,0.316 -2.121,0.879 C 194.316,245.441 194,246.204 194,247 v 20 c 0,0.796 0.316,1.559 0.879,2.121 0.562,0.563 1.325,0.879 2.121,0.879 h 22 c 0.796,0 1.559,-0.316 2.121,-0.879 C 221.684,268.559 222,267.796 222,267 v -20 c 0,-0.796 -0.316,-1.559 -0.879,-2.121 C 220.559,244.316 219.796,244 219,244 h -2 v -1 c 0,-0.552 -0.448,-1 -1,-1 -0.552,0 -1,0.448 -1,1 z m 2,2 v 1 c 0,0.552 -0.448,1 -1,1 -0.552,0 -1,-0.448 -1,-1 v -1 h -6 v 1 c 0,0.552 -0.448,1 -1,1 -0.552,0 -1,-0.448 -1,-1 v -1 h -6 v 1 c 0,0.552 -0.448,1 -1,1 -0.552,0 -1,-0.448 -1,-1 v -1 h -2 c -0.265,0 -0.52,0.105 -0.707,0.293 C 196.105,246.48 196,246.735 196,247 v 20 c 0,0.265 0.105,0.52 0.293,0.707 0.187,0.188 0.442,0.293 0.707,0.293 h 22 c 0.265,0 0.52,-0.105 0.707,-0.293 C 219.895,267.52 220,267.265 220,267 v -20 c 0,-0.265 -0.105,-0.52 -0.293,-0.707 C 219.52,246.105 219.265,246 219,246 Z"
   style="fill:#1990a7"
   id="path1"
   sodipodi:nodetypes="ccsssccssscscsscsscsscscsssccsssccsssccssscscsscsscsscsc" />

</g>

</svg>

<?xml version="1.0" ?>

<!DOCTYPE svg  PUBLIC '-//W3C//DTD SVG 1.1//EN'  'http://www.w3.org/Graphics/SVG/1.1/DTD/svg11.dtd'>

<!-- Uploaded to: SVG Repo, www.svgrepo.com, Generator: SVG Repo Mixer Tools -->
<svg fill="#000000" width="800px" height="800px" viewBox="0 0 32 32" style="fill-rule:evenodd;clip-rule:evenodd;stroke-linejoin:round;stroke-miterlimit:2;" version="1.1" xml:space="preserve" xmlns="http://www.w3.org/2000/svg" xmlns:serif="http://www.serif.com/" xmlns:xlink="http://www.w3.org/1999/xlink">

<g transform="matrix(1,0,0,1,-192,-240)">

<g transform="matrix(1.2381,0,0,1.04348,-50.1429,239.783)">

</g>

<path d="M215,244L209,244L209,243C209,242.448 208.552,242 208,242C207.448,242 207,242.448 207,243L207,244L201,244L201,243C201,242.448 200.552,242 200,242C199.448,242 199,242.448 199,243L199,244L197,244C196.204,244 195.441,244.316 194.879,244.879C194.316,245.441 194,246.204 194,247C194,251.52 194,262.48 194,267C194,267.796 194.316,268.559 194.879,269.121C195.441,269.684 196.204,270 197,270L219,270C219.796,270 220.559,269.684 221.121,269.121C221.684,268.559 222,267.796 222,267L222,247C222,246.204 221.684,245.441 221.121,244.879C220.559,244.316 219.796,244 219,244L217,244L217,243C217,242.448 216.552,242 216,242C215.448,242 215,242.448 215,243L215,244ZM217,246L217,247C217,247.552 216.552,248 216,248C215.448,248 215,247.552 215,247L215,246L209,246L209,247C209,247.552 208.552,248 208,248C207.448,248 207,247.552 207,247L207,246L201,246L201,247C201,247.552 200.552,248 200,248C199.448,248 199,247.552 199,247L199,246L197,246C196.735,246 196.48,246.105 196.293,246.293C196.105,246.48 196,246.735 196,247L196,267C196,267.265 196.105,267.52 196.293,267.707C196.48,267.895 196.735,268 197,268C197,268 219,268 219,268C219.265,268 219.52,267.895 219.707,267.707C219.895,267.52 220,267.265 220,267L220,247C220,246.735 219.895,246.48 219.707,246.293C219.52,246.105 219.265,246 219,246L217,246ZM202,262C202.552,262 203,262.448 203,263C203,263.552 202.552,264 202,264C201.448,264 201,263.552 201,263C201,262.448 201.448,262 202,262ZM208,262C208.552,262 209,262.448 209,263C209,263.552 208.552,264 208,264C207.448,264 207,263.552 207,263C207,262.448 207.448,262 208,262ZM214,262C214.552,262 215,262.448 215,263C215,263.552 214.552,264 214,264C213.448,264 213,263.552 213,263C213,262.448 213.448,262 214,262ZM202,257C202.552,257 203,257.448 203,258C203,258.552 202.552,259 202,259C201.448,259 201,258.552 201,258C201,257.448 201.448,257 202,257ZM208,257C208.552,257 209,257.448 209,258C209,258.552 208.552,259 208,259C207.448,259 207,258.552 207,258C207,257.448 207.448,257 208,257ZM214,257C214.552,257 215,257.448 215,258C215,258.552 214.552,259 214,259C213.448,259 213,258.552 213,258C213,257.448 213.448,257 214,257ZM202,252C202.552,252 203,252.448 203,253C203,253.552 202.552,254 202,254C201.448,254 201,253.552 201,253C201,252.448 201.448,252 202,252ZM208,252C208.552,252 209,252.448 209,253C209,253.552 208.552,254 208,254C207.448,254 207,253.552 207,253C207,252.448 207.448,252 208,252ZM214,252C214.552,252 215,252.448 215,253C215,253.552 214.552,254 214,254C213.448,254 213,253.552 213,253C213,252.448 213.448,252 214,252Z" style="fill:rgb(25,144,167);"/>

</g>

</svg>
